X: 62
T:Pretty Betty Martin
R:Reel
C:Garry Harrison
S:https://tunearch.org/wiki/Pretty_Betty_Martin_(1)
M:C|
L:1/8
Q:220
K:A
"A"efed c2A2|efed c2AB|c2AB c2Ac|"E"BABc B4|
"A"efed c2A2|efed c2AB|c2AB c2Ac|"E"BABc "A"A4:|
|:"A"a2g2f2e2|"D"d2c2B2A2|"E"GABc defg|"D"a2g2 fefg|
"A"a2g2f2e2|"D"d2c2B2AB|"A"c2AB c2Ac|"E"BABc "A"A4:|]

